X:667
%%etbk:tnset id:427,pos:3,rep:3x,ant:
%%etbk:wsite https://thesession.org/tunes/973
%%etbk:video src:ytube,cde:3Urwz6EMJkc,desc:
%%etbk:pldat 2016-09-16T15:45,2016-09-10T15:33,2016-09-07T17:42,2016-08-05T16:52,2016-07-21T19:40,2016-07-12T17:12,2016-07-07T16:28,2016-06-18T16:52,2016-06-16T19:28,2016-05-30T19:23,2016-05-29T14:51,2016-05-26T19:05,2016-05-25T15:53,2016-05-23T19:09,2016-05-16T15:59,2016-05-15T15:59,2016-05-14T17:49,2016-05-11T17:36,2016-04-11T18:05,2016-03-21T18:48,2016-03-20T14:44,2016-03-16T17:47,2016-03-14T18:58,2016-01-20T17:08,2016-01-12T18:27,2016-01-10T13:51,2016-01-04T19:09,2015-12-27T14:16,2015-12-16T18:17,2015-12-13T16:35,2015-12-01T16:59,2015-11-30T18:51,2015-11-29T14:06,2015-11-28T16:21,2015-11-26T18:55,2015-11-25T16:35,2015-11-24T18:11,2015-10-21T17:57,2015-10-20T17:58,2015-10-17T15:26,2015-10-13T17:34,2015-10-12T19:00,2015-09-29T17:08,2015-08-30T16:39,2015-08-18T17:18,2015-08-17T18:53,2015-08-14T17:22,2015-08-13T18:08,2015-08-09T14:53,2015-08-04T17:43,2015-08-01T17:24,2015-07-30T19:27,2015-07-29T18:02,2015-07-27T19:24,2015-07-25T14:37,2015-07-22T17:39,2015-07-20T19:06,2015-07-18T15:57,2015-07-17T12:02,2015-07-15T17:48,2015-07-11T15:09,2015-07-07T16:46,2015-06-09T18:23,2015-06-04T19:10,2015-05-25T15:43,2015-04-07T18:16,2015-04-04T15:43,2015-04-03T14:48
T: Man Of Aran
Z: Piano Box Version by Martin Fleischmann
H: Created 2015-03-30 /  Last Modified 2015-06-09
R: reel
M: 4/4
L: 1/8
K: Bmin
d|:!1!F!2!B!5!f!4!e !3!d!2!BBB|Aced cAAc|FBfe dB B2|!3!cedc !4!d!2!B!2!B!4!d|
FBfe dBBB|Aced cAAe| !5!f3e d!2!B B2|!3!cedc dB B2:|
c|:!1!d!3!f f2 df f2|!1!cege ce ce|df f2 dfed|!2!cedc d!1!BBc|
|1df f2 df f2|cege gece|dfeg fz!1!Bc| !1!dffe fedc:|
|2df f2 afdf|cee2 gece|dfeg fzBc| dffe fedc|


